X: 1
T: Spring Awakening
M: 4/4
L: 1/4
Q: 1/4=120
K: C
V:1
%%MIDI gchord b2b2
%%MIDI program 1
%%MIDI chordprog 48
%%MIDI bassprog 45
| "C" c2 e2 | "F" f2 g2 | "G" g2 e2 | "C" c4 | % measure 1-4
%%MIDI program 1
%%MIDI chordprog 48
%%MIDI bassprog 45
| "Dm" d2 f2 | "G" g2 a2 | "C" e2 g2 | "C" c4 | % measure 5-8
%%MIDI program 1
%%MIDI chordprog 73
%%MIDI bassprog 45
| "Am" a2 c'2 | "Dm" d'2 f'2 | "G" g2 e'2 | "C" c4 | % measure 9-12
%%MIDI program 1
%%MIDI chordprog 48
%%MIDI bassprog 45
| "C" e2 g2 | "G" g2 b2 | "Dm" f2 a2 | "C" c4 | % measure 13-16